X:1
T:English Suite V Passpied I & II
T:BWV 810
T:J. S. Bach
%%score { ( 1 3 ) | 2 }
L:1/8
M:3/8
K:G
V:1 treble nm="Harp"
V:3 treble 
V:2 bass 
V:1
 B | e/f/gf | ge/^d/e/f/ | g/a/b/c'/b/a/ | b/e/f/g/a/b/ | c'b/a/g/f/ | ba/g/f/e/ | a/g/f/g/a/f/ | %8
 g/B/^c/^d/e/d/ | e/f/g/a/g/f/ | g/f/e/^d/e/f/ | g/a/b/c'/b/a/ | b/e/f/g/a/b/ | c'/d/e/f/g/a/ | %14
 bBe- | e/f/g/4f/4g/4f/4g/4f/4e/ | e2 g | B/c/de | dc/B/A/G/ | gB/c/d/e/ | d g2- | gea | f b2- | %23
 ba/g/f/e/ | g/f/e/d/f | B/^c/dc | d^c/B/c/d/ | e/f/gf | g3- | g/^a/b/g/f/e/ | d/^e/f/d/^c/B/ | %31
 e/f/d/4^c/4d/4c/4d/4c/4B/ | B2 B | e/f/gf | ge/^d/e/f/ | g/a/b/c'/b/a/ | b/e/f/g/a/b/ | %37
 c'b/a/g/f/ | ba/g/f/e/ | a/g/f/g/a/f/ | g/B/^c/^d/e/d/ | e/f/g/a/g/f/ | g/f/e/^d/e/f/ | %43
 g/a/b/c'/b/a/ | b/e/f/g/a/b/ | c'/d/e/f/g/a/ | bBe- | e/f/g/4f/4g/4f/4g/4f/4e/ | e2 B/c/ | %49
 d/B/^G/E/=f- | fed | c/e/a/c/B/^g/ | a/e/c/A/c/e/ | a/f/^d/B/c- | cBA | G/B/e/^d/e/f/ | %56
 e/^d/^c/B/b- | b/e/=f/d/e/B/ | d/c/B/A/a- | a/d/_e/c/d/A/ | c/B/A/G/d- | d/A/B/G/A/=F/ | %62
 E/d/c/A/B/G/ | f/g/c/B/A/B/ | G2 B | e/f/gf | ge/^d/e/f/ | g/a/b/c'/b/a/ | b/e/f/g/a/b/ | %69
 c'b/a/g/f/ | ba/g/f/e/ | a/g/f/g/a/f/ | g/B/^c/^d/e/d/ | e/f/g/a/g/f/ | g/f/e/^d/e/f/ | %75
 g/a/b/c'/b/a/ | b/e/f/g/a/b/ | c'/d/e/f/g/a/ | bBe- | e/f/g/4f/4g/4f/4g/4f/4e/ |[K:E] e2 b | %81
 ga/g/f/e/ | f/d/eB | cBA | G/F/Eb | ga/g/f/e/ | f/d/eB | cBA | G2 b | ga/g/f/e/ | f/d/eB | cBA | %92
 G/F/Eb | ga/g/f/e/ | f/d/eB | cBA | G2 g | fe/d/c/B/ | e/c/fe | de/d/c/B/ | cF/G/^A/B/ | %101
 c/d/e/c/g | fe/d/c/B/ | e/f/d/4c/4d/4c/4d/4c/4B/ | B2 B | GA/G/F/E/ | =d/B/c^d | ef/e/d/c/ | %108
 a/f/gf- | f/d/ec- | c/a/B/g/A/f/ | GAF | E2 g | fe/d/c/B/ | e/c/fe | de/d/c/B/ | cF/G/^A/B/ | %117
 c/d/e/c/g | fe/d/c/B/ | e/f/d/4c/4d/4c/4d/4c/4B/ | B2 B | GA/G/F/E/ | =d/B/c^d | ef/e/d/c/ | %124
 a/f/gf- | f/d/ec- | c/a/B/g/A/f/ | GAF |[K:G] E2 B | e/f/gf | ge/^d/e/f/ | g/a/b/c'/b/a/ | %132
 b/e/f/g/a/b/ | c'b/a/g/f/ | ba/g/f/e/ | a/g/f/g/a/f/ | g/B/^c/^d/e/d/ | e/f/g/a/g/f/ | %138
 g/f/e/^d/e/f/ | g/a/b/c'/b/a/ | b/e/f/g/a/b/ | c'/d/e/f/g/a/ | bBe- | e/f/g/4f/4g/4f/4g/4f/4e/ | %144
 e2 g | B/c/de | dc/B/A/G/ | gB/c/d/e/ | d g2- | gea | f b2- | ba/g/f/e/ | g/f/e/d/f | B/^c/dc | %154
 d^c/B/c/d/ | e/f/gf | g3- | g/^a/b/g/f/e/ | d/^e/f/d/^c/B/ | e/f/d/4^c/4d/4c/4d/4c/4B/ | B2 B | %161
 e/f/gf | ge/^d/e/f/ | g/a/b/c'/b/a/ | b/e/f/g/a/b/ | c'b/a/g/f/ | ba/g/f/e/ | a/g/f/g/a/f/ | %168
 g/B/^c/^d/e/d/ | e/f/g/a/g/f/ | g/f/e/^d/e/f/ | g/a/b/c'/b/a/ | b/e/f/g/a/b/ | c'/d/e/f/g/a/ | %174
 bBe- | e/f/g/4f/4g/4f/4g/4f/4e/ | e2 B/c/ | d/B/^G/E/=f- | fed | c/e/a/c/B/^g/ | a/e/c/A/c/e/ | %181
 a/f/^d/B/c- | cBA | G/B/e/^d/e/f/ | e/^d/^c/B/b- | b/e/=f/d/e/B/ | d/c/B/A/a- | a/d/_e/c/d/A/ | %188
 c/B/A/G/d- | d/A/B/G/A/=F/ | E/d/c/A/B/G/ | f/g/c/B/A/B/ | G2 B | e/f/gf | ge/^d/e/f/ | %195
 g/a/b/c'/b/a/ | b/e/f/g/a/b/ | c'b/a/g/f/ | ba/g/f/e/ | a/g/f/g/a/f/ | g/B/^c/^d/e/d/ | %201
 e/f/g/a/g/f/ | g/f/e/^d/e/f/ | g/a/b/c'/b/a/ | b/e/f/g/a/b/ | c'/d/e/f/g/a/ | bBe- | %207
 e/f/g/4f/4g/4f/4g/4f/4e/ | e2 z |] %209
V:2
 E | G,A,B, | E,G,B, | E/F/GF | GF/E/F/G/ | AFD | GEC | F,E^D | EE,F, | G,A,B, | E,G,B, | E/F/GE | %12
 GF/E/F/G/ | AGF | G/F/E/D/C/B,/ | C/A,/B,B,, | E,E,,E,/F,/ | G,/A,/B,/C/B,/A,/ | %18
 B,/A,/G,/A,/B,/C/ | B,/A,/G,/A,/B,/C/ | B,/A,/G,/F,/E,/D,/ | C,/E,/A,/G,/F,/E,/ | %22
 D,/E,/D,/C,/B,,/A,,/ | G,,/E,/A,A,, | D,>F,B,/A,/ | G,/F,/E,/D,/E,/F,/ | B,,/B,/^A,/^G,/A,/B,/ | %27
 ^C,/B,/A,/G,/A,/^D,/ | E,/A,/G,/F,/G,/E,/ | ^C,D,^A,, | B,,D,G,- | G,/E,/F,F,, | B,,B,/A,/G,/F,/ | %33
 G,A,B, | E,G,B, | E/F/GF | GF/E/F/G/ | AFD | GEC | F,E^D | EE,F, | G,A,B, | E,G,B, | E/F/GE | %44
 GF/E/F/G/ | AGF | G/F/E/D/C/B,/ | C/A,/B,B,, | E,E,, z | z E,/F,/^G,/A,/ | B,/A,/^G,/B,/E,/G,/ | %51
 A,D,E, | A,,A,G, | F,B,,/^C,/^D,/E,/ | F,/E,/^D,/F,/B,,/D,/ | E,C,A,, | B,,-B,,/B,/A,/F,/ | %57
 ^G,E,G, | A,,-A,,/A,/G,/E,/ | F,D,F, | G,,>D,C,/A,,/ | B,,G,, z | C,A,, z | D,C,D, | %64
 G,/A,/B,/G,/A,/F,/ | G,A,B, | E,G,B, | E/F/GF | GF/E/F/G/ | AFD | GEC | F,E^D | EE,F, | G,A,B, | %74
 E,G,B, | E/F/GE | GF/E/F/G/ | AGF | G/F/E/D/C/B,/ | C/A,/B,B,, |[K:E] E,E,, E | E3- | E3- | %83
 E2 F/4E/4F/4E/4 | E3- | E3- | E3 | A,B,B,, | E,B, E | E3- | E3- | E2 F/4E/4F/4E/4 | E3- | E3- | %94
 E3 | A,B,B,, | E,B,[K:treble] E | DEF | G^AF | B^AG | F3- | F2[K:bass] E | DG/F/E/D/ | C/B,/FF, | %104
 B,CD | EE,F, | G,A,B, | C3 | DEA, | B,3- | B,CD | EA,B, | E,2[K:treble] E | DEF | G^AF | B^AG | %116
 F3- | F2[K:bass] E | DG/F/E/D/ | C/B,/FF, | B,CD | EE,F, | G,A,B, | C3 | DEA, | B,3- | B,CD | %127
 EA,B, |[K:G] E,2 E | G,A,B, | E,G,B, | E/F/GF | GF/E/F/G/ | AFD | GEC | F,E^D | EE,F, | G,A,B, | %138
 E,G,B, | E/F/GE | GF/E/F/G/ | AGF | G/F/E/D/C/B,/ | C/A,/B,B,, | E,E,,E,/F,/ | G,/A,/B,/C/B,/A,/ | %146
 B,/A,/G,/A,/B,/C/ | B,/A,/G,/A,/B,/C/ | B,/A,/G,/F,/E,/D,/ | C,/E,/A,/G,/F,/E,/ | %150
 D,/E,/D,/C,/B,,/A,,/ | G,,/E,/A,A,, | D,>F,B,/A,/ | G,/F,/E,/D,/E,/F,/ | B,,/B,/^A,/^G,/A,/B,/ | %155
 ^C,/B,/A,/G,/A,/^D,/ | E,/A,/G,/F,/G,/E,/ | ^C,D,^A,, | B,,D,G,- | G,/E,/F,F,, | B,,B,/A,/G,/F,/ | %161
 G,A,B, | E,G,B, | E/F/GF | GF/E/F/G/ | AFD | GEC | F,E^D | EE,F, | G,A,B, | E,G,B, | E/F/GE | %172
 GF/E/F/G/ | AGF | G/F/E/D/C/B,/ | C/A,/B,B,, | E,E,, z | z E,/F,/^G,/A,/ | B,/A,/^G,/B,/E,/G,/ | %179
 A,D,E, | A,,A,G, | F,B,,/^C,/^D,/E,/ | F,/E,/^D,/F,/B,,/D,/ | E,C,A,, | B,,-B,,/B,/A,/F,/ | %185
 ^G,E,G, | A,,-A,,/A,/G,/E,/ | F,D,F, | G,,>D,C,/A,,/ | B,,G,, z | C,A,, z | D,C,D, | %192
 G,/A,/B,/G,/A,/F,/ | G,A,B, | E,G,B, | E/F/GF | GF/E/F/G/ | AFD | GEC | F,E^D | EE,F, | G,A,B, | %202
 E,G,B, | E/F/GE | GF/E/F/G/ | AGF | G/F/E/D/C/B,/ | C/A,/B,B,, | E,E,, z |] %209
V:3
 x | x3 | x3 | x3 | x3 | x3 | x3 | x3 | x3 | x3 | x3 | x3 | x3 | x3 | x3 | x3 | x3 | x3 | x3 | x3 | %20
 x3 | x3 | x3 | x3 | x3 | x3 | x3 | x3 | x3 | x3 | x3 | x3 | x3 | x3 | x3 | x3 | x3 | x3 | x3 | %39
 x3 | x3 | x3 | x3 | x3 | x3 | x3 | x3 | x3 | x3 | x3 | x3 | x3 | x3 | x3 | x3 | x3 | x3 | x3 | %58
 x3 | x3 | x3 | x3 | x3 | x3 | x3 | x3 | x3 | x3 | x3 | x3 | x3 | x3 | x3 | x3 | x3 | x3 | x3 | %77
 x3 | x3 | x3 |[K:E] z2 G/A/ | BAG | AG/F/A/G/ | AGF | E>FG/A/ | BAG | AG/F/A/G/ | AGF | E2 G/A/ | %89
 BAG | AG/F/A/G/ | AGF | E>FG/A/ | BAG | AG/F/A/G/ | AGF | E2 B | B3- | B c2 | B3 | ^A z F/G/ | %101
 ^AGA | B3- | B ^A2 | B2 F | E3- | E3- | E/F/G^A | B2 A- | A/F/G/E/A/C/ | DEF | EFD | E2 B | B3- | %114
 B c2 | B3 | ^A z F/G/ | ^AGA | B3- | B ^A2 | B2 F | E3- | E3- | E/F/G^A | B2 A- | A/F/G/E/A/C/ | %126
 DEF | EFD |[K:G] E2 x | x3 | x3 | x3 | x3 | x3 | x3 | x3 | x3 | x3 | x3 | x3 | x3 | x3 | x3 | x3 | %144
 x3 | x3 | x3 | x3 | x3 | x3 | x3 | x3 | x3 | x3 | x3 | x3 | x3 | x3 | x3 | x3 | x3 | x3 | x3 | %163
 x3 | x3 | x3 | x3 | x3 | x3 | x3 | x3 | x3 | x3 | x3 | x3 | x3 | x3 | x3 | x3 | x3 | x3 | x3 | %182
 x3 | x3 | x3 | x3 | x3 | x3 | x3 | x3 | x3 | x3 | x3 | x3 | x3 | x3 | x3 | x3 | x3 | x3 | x3 | %201
 x3 | x3 | x3 | x3 | x3 | x3 | x3 | z2 x |] %209

